brandFactory_export/2.Regular/Quimica_2Regular.svg

<?xml version="1.0" encoding="UTF-8"?>
<svg width="24px" height="24px" viewBox="0 0 24 24" version="1.1" xmlns="http://www.w3.org/2000/svg" xmlns:xlink="http://www.w3.org/1999/xlink">
    <title>2.Regular/Quimica_2Regular</title>
    <g id="Symbols" stroke="none" stroke-width="1" fill="none" fill-rule="evenodd">
        <g id="2.Regular/Quimica_2Regular" fill="#5CB615" fill-rule="nonzero">
            <path d="M1.66386555,22.1344538 L22.1512605,22.1344538 L15.4588235,13.3210084 C14.4067227,13.610084 13.0957983,13.7680672 11.707563,13.7680672 C10.4235294,13.7680672 9.2,13.6268908 8.19159664,13.3815126 L1.66386555,22.1344538 Z M9.58655462,11.5159664 L9.17310924,12.0605042 C10.789916,12.3394958 12.9008403,12.3294118 14.4672269,12.0302521 L14.0840336,11.5159664 C13.9865546,11.3915966 13.9327731,11.2369748 13.9327731,11.0789916 L13.9327731,1.48907563 L9.73781513,1.48907563 L9.73781513,9.88571429 C9.73781513,9.89579832 9.72773109,9.92605042 9.72773109,9.94621849 C9.72773109,9.96638655 9.73781513,9.98655462 9.73781513,10.0067227 L9.73781513,11.0789916 C9.73781513,11.2336134 9.68403361,11.3882353 9.58655462,11.5159664 Z M23.394958,21.3176471 C23.7176471,21.8252101 23.7378151,22.389916 23.4756303,22.8571429 C23.2134454,23.3243697 22.7092437,23.6235294 22.1512605,23.6235294 L1.43865546,23.6235294 C0.931092437,23.6235294 0.467226891,23.3445378 0.21512605,22.9176471 C-0.0369747899,22.4840336 -0.0268907563,21.9428571 0.235294118,21.5159664 L8.21848739,10.8268908 L8.21848739,10.0134454 C8.20840336,9.95966387 8.20840336,9.90588235 8.21848739,9.85546218 L8.21848739,1.48907563 L7.29747899,1.48907563 C6.88403361,1.48907563 6.54789916,1.15630252 6.54117647,0.742857143 C6.54453782,0.32605042 6.88739496,0 7.30084034,0 L16.389916,0 C16.8,0 17.1361345,0.332773109 17.1361345,0.746218487 C17.1361345,1.15966387 16.8033613,1.49243697 16.389916,1.49243697 L15.4521008,1.49243697 L15.4521008,10.8302521 L23.394958,21.3176471 Z M15.9966387,18.9815126 C15.9966387,17.6470588 14.887395,17.5361345 14.6016807,17.5260504 C14.5647059,17.5260504 14.5277311,17.5226891 14.4907563,17.5226891 L14.4638655,17.5226891 C14.1714286,17.5260504 13.0890756,17.6235294 13.0890756,18.9680672 C13.0890756,20.312605 14.1848739,20.4201681 14.4773109,20.4235294 L14.6117647,20.4235294 C14.887395,20.4235294 15.9966387,20.3193277 15.9966387,18.9815126 Z M14.4941176,16.5310924 L14.6285714,16.5344538 C15.8117647,16.5647059 17.0084034,17.3310924 17.0084034,18.9815126 C17.0084034,20.6352941 15.8117647,21.4016807 14.6285714,21.4218487 L14.4605042,21.4218487 C13.2739496,21.405042 12.0773109,20.6420168 12.0773109,18.9747899 C12.0773109,17.3042017 13.2705882,16.5445378 14.4571429,16.5344538 L14.4941176,16.5310924 Z M9.38823529,17.3613445 C9.54285714,17.3579832 10.1613445,17.3008403 10.1613445,16.5546218 C10.1613445,15.8117647 9.54285714,15.7512605 9.38487395,15.7478992 L9.30756303,15.7478992 C9.14621849,15.7478992 8.54117647,15.805042 8.54117647,16.5512605 C8.54117647,17.3008403 9.15294118,17.3579832 9.31428571,17.3613445 L9.38823529,17.3613445 L9.38823529,17.3613445 Z M9.41176471,14.7563025 C10.2588235,14.7764706 11.1731092,15.3478992 11.1731092,16.5579832 C11.1731092,17.7714286 10.2554622,18.3394958 9.40504202,18.3563025 L9.30084034,18.3563025 C8.44705882,18.3428571 7.53277311,17.7747899 7.53277311,16.5546218 C7.53277311,15.3277311 8.44705882,14.7630252 9.29747899,14.7563025 L9.41176471,14.7563025 L9.41176471,14.7563025 Z" id="Quimica_2Regular"></path>
        </g>
    </g>
</svg>

<svg width="24" height="24" viewBox="0 0 24 24" xmlns="http://www.w3.org/2000/svg"><path d="M1.664 22.134H22.15l-6.692-8.813c-1.052.29-2.363.447-3.751.447-1.284 0-2.508-.141-3.516-.386l-6.528 8.752zm7.923-10.618l-.414.545c1.617.278 3.728.268 5.294-.03l-.383-.515a.71.71 0 01-.151-.437v-9.59H9.738v8.397c0 .01-.01.04-.01.06 0 .02.01.04.01.06v1.073c0 .155-.054.31-.151.437zm13.808 9.802c.323.507.343 1.072.08 1.54a1.516 1.516 0 01-1.324.766H1.44a1.43 1.43 0 01-1.224-.706 1.37 1.37 0 01.02-1.402l7.983-10.69v-.813a.416.416 0 010-.158V1.49h-.92A.758.758 0 016.54.743.753.753 0 017.301 0h9.089a.747.747 0 010 1.492h-.938v9.338l7.943 10.488zm-7.398-2.336c0-1.335-1.11-1.446-1.395-1.456l-.111-.003h-.027c-.293.003-1.375.1-1.375 1.445s1.096 1.452 1.388 1.456h.135c.275 0 1.385-.105 1.385-1.442zm-1.503-2.45l.135.002c1.183.03 2.38.797 2.38 2.448 0 1.653-1.197 2.42-2.38 2.44h-.168c-1.187-.017-2.384-.78-2.384-2.447 0-1.67 1.194-2.43 2.38-2.44l.037-.004zm-5.106.83c.155-.004.773-.061.773-.807 0-.743-.618-.804-.776-.807h-.077c-.162 0-.767.057-.767.803 0 .75.612.807.773.81h.074zm.024-2.606c.847.02 1.761.592 1.761 1.802 0 1.213-.918 1.781-1.768 1.798h-.104c-.854-.013-1.768-.581-1.768-1.801 0-1.227.914-1.792 1.764-1.799h.115z" fill="#5CB615" fill-rule="nonzero"/></svg>
